usr/share/icons/biglinux-icons-material/24/actions/format-text-underline.svg

<svg xmlns="http://www.w3.org/2000/svg" viewBox="0 0 24 24"><path d="M7 4v7c0 2.77 2.23 5 5 5s5-2.23 5-5V4h-2v8c0 1.108-.892 2-2 2s-2-.892-2-2V4H7zM5 19v1h14v-1H5z" style="fill:currentColor;fill-opacity:1;stroke:none;color:#dedede"/></svg>

<svg xmlns="http://www.w3.org/2000/svg" viewBox="0 0 24 24">
  <defs id="defs3051">
    <style type="text/css" id="current-color-scheme">
      .ColorScheme-Text {
        color:#363636;
      }
      </style>
  </defs>
 <path style="fill:currentColor;fill-opacity:1;stroke:none" 
     d="M 7 4 L 7 11 C 7 13.77 9.23 16 12 16 C 14.77 16 17 13.77 17 11 L 17 4 L 15 4 L 15 12 C 15 13.108 14.108 14 13 14 C 11.892 14 11 13.108 11 12 L 11 4 L 7 4 z M 5 19 L 5 20 L 19 20 L 19 19 L 5 19 z "
     class="ColorScheme-Text"
     />
</svg>
